X:1
T:Montville
T:A minor                    Merit Woodruff, 1800
T:Transcribed from Devotional Harmony, 1800.
T:Isaac Watts, 1709 (Hymn 95, Book 2)                  86. 86. (C. M.)
%%score [ 1 2 3 4 ]
L:1/8
Q:1/4=110
M:4/4
K:C
V:1 treble nm="Tr." snm="Tr."
V:2 treble nm="C." snm="C."
V:3 treble-8 nm="T." snm="T."
V:4 bass nm="B." snm="B."
V:1
"_O, the sharp pangs  of  smar     –    ting  pain        My  dear  Re–dee –mer   bore,          My    dear  Re–dee –mer  bore                                               When knotty whips and" A4 B2 B2 | %1
 (c2 e2 d2) d2 | (e2 dc B2) A2 | B6 B2 | (e4 d2) c2 | B4 (c2 A2) | B6 B2 | c4 A4 | G6 B2 | A6 z2 | %10
 z8 | z4 z2 B2 | e2 f2 e2 c2 | %13
"_ragged thorns His sacred bo –dy  tore!  His  sa  –  cred     bo      –      dy   tore!" A2 c2 B2 G2 | %14
 c2 A2 B2 c2 | e6 f2 | e4 (c2 A2) | (G3 A B2) c2 | A8 |] %19
V:2
 z8 | z8 | %2
"_O,    the  sharp  pangs       of  smar–ting   pain  My  dear           Re  –  dee       –        mer  bore,                                                                             When" E4 G2 A2 | %3
 G6 G2 | E4 A4 | G6 c2 | (B3 A G2) GF | (E4 F4 | E6) E2 | E6 z2 | z8 | z8 | z4 z2 E2 | %13
"_knotty whips and ragged  thorns            His  sa  –  cred    bo       –       dy   tore!" E2 E2 G2 E2 | %14
 A2 EF G4- | G6 A2 | G4 F4 | E6 E2 | E8 |] %19
V:3
 z8 | %1
"_O,  the sharp  pangs         of   smar         –          ting   pain    My  dear           Re  –  dee        –        mer  bore,                  When  knotty whips and  rag    –     ged" A4 G2 F2 | %2
 (c2 Bc d2) d2 | (e3 f e2 d2 | c4) (B2 A2) | e6 c2 | d6 cd | (e4 d2 c2 | B6) G2 | A6 z2 | %10
 z4 z2 cd | e2 e2 e2 ef | (g3 a g2) e2 | %13
"_thorns      His  sa – cred  bo –dy  tore!  His  sa  –  cred    bo       –       dy   tore!" (c2 e2 d2) c2 | %14
 c2 A2 G2 A2 | E6 G2 | c4 (A2 c2) | B6 G2 | A8 |] %19
V:4
"_O, the sharp pangs  of  smar     –    ting  pain        My  dear  Re–dee –mer   bore,          My    dear Re–dee–mer bore When knotty whips and ragged thorns,   When knotty" A,4 G,2 E,2 | %1
 (A,4 B,2) B,2 | (C2 B,A, G,2) F,2 | E,6 G,2 | (C,4 D,2) D,2 | E,4 (E,2 A,2) | G,6 E,D, | C,4 D,4 | %8
 E,6 E,2 | A,,6 E,2 | A,2 A,2 A,2 A,B, | C2 B,G, E,4- | E,2 E,2 C,2 C,2 | %13
"_whips and rag – ged      thorns              His   sa  –  cred   bo       –       dy   tore!" C,2 C,2 G,4 | %14
 A,4 E,4- | E,6 D,2 | C,4 D,4 | E,6 E,2 | A,,8 |] %19

